static/assets/svg/human/humanClothes/female_shirt9_stickers/female_shirt9_sticker11.svg

<svg class="shirtOverlay" width="86" height="380" viewBox="202.715 584.407 86.593 380.048" preserveAspectRatio="xMidYMax" xmlns="http://www.w3.org/2000/svg" xmlns:xlink="http://www.w3.org/1999/xlink"><defs><pattern id="a" width="20" height="20" patternUnits="userSpaceOnUse" viewBox="0 0 100 100"><path stroke-width="7" stroke="#888" fill="#b3b2d2" d="M1.716 1.978h95.428v95.719H1.716z"/><path d="M.078 217.514v919.561h524.34V217.514H.078zm60.618 66.587h413.11v466.04h-177.94v2.628c-.145 4.18 1.611 13.963 3.163 19.842 8.544 29.501-16.7 40.486-28.501 56.392-13.951 21.834 8.184 45.385 18.717 54.176 9.956 7.234 14.414 36.288 3.858 49.992-19.009 17.329-11.405 50.037 6.274 62.908 19.454 7.698 30.573 49.936 27.476 72.599-198.47-.878-44.171-2.729-267.48 1.807-14.483-.921-6.613-22.187-6.082-42.77 15.866-.35 39.286-15.042 54.014-22.722 14.046-10.742 29.562-17.299 42.352-31.66 20.309-17.495 6.607-51.702-4.606-69.284-13.598-17.753-10.508-51.408 6.934-61.856 16.728-12.812 40.539-12.912 50.59-39.797 5.018-19.434 17.113-33.125 32.464-43.934 5.165-2.164 4.935-3.126 5.214-5.167v-3.154H60.693v-466.04zm179.56 466.04h55.613V497.282h83.419v-73.148h-83.419V314.412h-55.613v109.722h-83.419v73.148h83.419v252.859z" fill="#24221c" transform="matrix(.14646 0 0 .10684 11.51 -22.503)"/></pattern><pattern id="b" patternTransform="translate(235.115 694.488)" xlink:href="#a"/></defs><path class="clothes" fill="none" d="M202.715 584.431h86.593V700.24h-86.593z"/><path class="clothes" fill="none" d="M-403.988 499.579h1300v550h-1300z"/><path stroke="#000" fill="url(#b)" d="M232.426 739.15l3.094-12.999-4.951-15.474-3.095-4.952-2.476-21.045 2.476-14.236 16.712 24.759 17.95-25.378 3.095 19.807-2.476 26.616z"/></svg>

<svg class="shirtOverlay" width="86" height="380" viewBox="202.715 584.407 86.5933 380.048" preserveAspectRatio="xMidYMax" xmlns="http://www.w3.org/2000/svg" xmlns:xlink="http://www.w3.org/1999/xlink">
  <defs id="svgEditorDefs">
    <path id="svgEditorClosePathDefs" fill="black" style="stroke-width: 0px; stroke: none;" class="clothes"/>
    <pattern id="pattern-0" x="0" y="0" width="20" height="20" patternUnits="userSpaceOnUse" viewBox="0 0 100 100">
      <rect style="stroke-width: 7; stroke: rgb(136, 136, 136); fill: rgb(179, 178, 210);" x="1.716" y="1.978" width="95.428" height="95.719"/>
      <g transform="matrix(0.146459, 0, 0, 0.106843, 11.509921, 10.433688)">
        <g id="layer1" transform="translate(0 -308.27)">
          <path id="rect3983" style="fill: rgb(36, 34, 28);" d="M 0.078 217.514 L 0.078 1137.075 L 524.418 1137.075 L 524.418 217.514 L 0.078 217.514 Z M 60.696 284.101 L 473.806 284.101 L 473.806 750.141 L 295.866 750.141 L 295.866 752.769 C 295.721 756.949 297.477 766.732 299.029 772.611 C 307.573 802.112 282.329 813.097 270.528 829.003 C 256.577 850.837 278.712 874.388 289.245 883.179 C 299.201 890.413 303.659 919.467 293.103 933.171 C 274.094 950.5 281.698 983.208 299.377 996.079 C 318.831 1003.777 329.95 1046.015 326.853 1068.678 C 128.383 1067.8 282.682 1065.949 59.373 1070.485 C 44.89 1069.564 52.76 1048.298 53.291 1027.715 C 69.157 1027.365 92.577 1012.673 107.305 1004.993 C 121.351 994.251 136.867 987.694 149.657 973.333 C 169.966 955.838 156.264 921.631 145.051 904.049 C 131.453 886.296 134.543 852.641 151.985 842.193 C 168.713 829.381 192.524 829.281 202.575 802.396 C 207.593 782.962 219.688 769.271 235.039 758.462 C 240.204 756.298 239.974 755.336 240.253 753.295 L 240.253 750.141 L 60.693 750.141 L 60.693 284.101 Z M 240.256 750.141 L 295.869 750.141 L 295.869 497.282 L 379.288 497.282 L 379.288 424.134 L 295.869 424.134 L 295.869 314.412 L 240.256 314.412 L 240.256 424.134 L 156.837 424.134 L 156.837 497.282 L 240.256 497.282 L 240.256 750.141 Z"/>
        </g>
      </g>
    </pattern>
    <pattern id="pattern-0-0" patternTransform="matrix(1, 0, 0, 1, 235.114532, 694.487549)" xlink:href="#pattern-0"/>
  </defs>
  <rect id="svgEditorBackground" x="202.71499633789062" y="584.4310302734375" width="86.59329986572266" height="115.80899810791016" style="fill: none; stroke: none;" class="clothes"/>
  <rect id="rect-1" x="-403.988" y="499.579" width="1300" height="550" style="fill: none; stroke: none;" class="clothes"/>
  <polygon style="stroke: rgb(0, 0, 0); fill: url(#pattern-0-0);" points="232.426 739.15 235.52 726.151 230.569 710.677 227.474 705.725 224.998 684.68 227.474 670.444 244.186 695.203 262.136 669.825 265.231 689.632 262.755 716.248"/>
</svg>
